!!!!SEGMENT: pl-kk--kk-i-382--032_fuchs--blysnal-poranek.krn
!!!cenid: 18xx:1548
!!!COM: Fuchs
!!!COM-rismID: pe187366
!!!CDT: 1842/05/05-1899/10/15
!!!CNT: Austrian
!!!OTL: Błysnął poranek
!!!PDT:
!!!AGN: Sacred
!!!SMS-siglum: PL-Kk
!!!SMS-shelfmark: Kk.I.382
!!!SMS-shelfwork: 032 W
!!!SMS-variant:
!!!SMS-altvar:
!!!NIFC-rismSourceID: 1001139027
!!!NIFC-rismChildID: 1001140401
!!!NIFC-islandoraID: pl-kk:6162
!!!URL-pdf-islandora: https://repozytorium.nifc.pl/islandora/object/pl-kk%3A6162/datastream/PDF/view
!!!URL-scan: https://polish.musicsources.pl/pl/lokalizacje/galeria/rekopisy/5994 @EN{Scan on Polish Music Sources Website} @PL{Skany w portalu Dziedzictwo Muzyki Polskiej w otwartym dostępie}
!!!IIIF:
!!!ONB-nifc: UWAGA: obsada: S (T 1), A (B 1), B 2; S (T 1): skan 0038, A (B 1): skan 0181, B 2: skan 0258
!!!AIN: 1 alto 1 bass 1 tenor
!!!key:
**kern	**text	**text	**dynam	**kern	**text	**text	**dynam	**kern	**text	**text	**dynam
*part3	*part3	*part3	*part3	*part2	*part2	*part2	*part2	*part1	*part1	*part1	*part1
*staff3	*staff3	*staff3	*staff3	*staff2	*staff2	*staff2	*staff2	*staff1	*staff1	*staff1	*staff1
*Ibass	*	*	*	*Ialto	*	*	*	*Itenor	*	*	*
*I"Basso II	*	*	*	*I"Alto vel Basso I	*	*	*	*I"Soprano vel Tenore I.	*	*	*
*I'B 2	*	*	*	*I'A (B 1)	*	*	*	*I'S (T 1)	*	*	*
*clefF4	*	*	*	*clefF4	*	*	*	*clefG2	*	*	*
*k[]	*	*	*	*k[]	*	*	*	*k[]	*	*	*
*C:	*	*	*	*C:	*	*	*	*C:	*	*	*
*M4/4	*	*	*	*M4/4	*	*	*	*M4/4	*	*	*
*met(c)	*	*	*	*met(c)	*	*	*	*met(c)	*	*	*
*	*verse1	*verse2	*	*	*verse1	*verse2	*	*	*verse1	*verse2	*
=1	=1	=1	=1	=1	=1	=1	=1	=1	=1	=1	=1
*2\right	*	*	*	*2\right	*	*	*	*	*	*	*
!LO:TX:a:i:t=Moderato.	!	!	!	!LO:TX:a:t=P:problem=all\right&colon; global	!	!	!	!LO:TX:a:t=P:problem= all\right&colon; global	!	!	!
!LO:TX:a:t=P:problem=all\right&colon; global	!	!	!	!LO:TX:a:i:t=Moderato.	!	!	!	!LO:TX:a:i:t=Moderato	!	!	!
4C/	Bły-	Lecz	.	4E\	Błys-	Lecz	.	4g/	Bły-	Lecz	.
8C/	-snął	gdy	.	8E\	-nął	gdy	.	8g/	-snął	gdy	.
8C/	po-	się	.	8E\	po-	się	.	8g/	po-	się	.
4.C/	-ra-	groź-	.	4.G\	-ra-	groź-	.	4.ee\	-ra-	groź-	.
8C/	-nek	-ną	.	8E\	-nek	-ną	.	8cc\	-nek	-ną	.
=2	=2	=2	=2	=2	=2	=2	=2	=2	=2	=2	=2
4C/	znik-	po-	<	4F\	znik-	po-	.	4a/	znik-	po-	<
8C/	-nę-	-tę-	[	8F\	-ły	-tę-	<	8a/	-nę-	-tę-	[
8C/	-ły	-gą	.	8D\	już	-gą	.	8b\	-ły	-gą	>
4C/	cie-	trwo-	>	4G\	cie-	trwo-	[	4cc\	cie-	trwo-	.
4C/	-nie	-żę	]]	4E\	-nie	-żę	.	4g/	-nie	-żę	]
=3	=3	=3	=3	=3	=3	=3	=3	=3	=3	=3	=3
4BB/	ja	Bos-	.	4F\	ja	Bos-	>	4dd\	ja	Bos-	.
8BB/	wzrok	-ka	.	8F\	wzrok	-ka	.	8dd\	wzrok	-ka	.
8BB/	z po-	mnie	.	8F\	z po-	mnie	]	8g/	z po-	mnie	.
4C/	-ko-	li-	.	4E\	-ko-	li-	.	4ee\	-ko-	li-	.
4AA/	-rą	-tość	.	4E\	-rą	-tość	.	4cc\	-rą	-tość	.
!LO:LB:g=original	!	!	!	!LO:LB:g=original	!	!	!	!LO:LB:g=original	!	!	!
=4	=4	=4	=4	=4	=4	=4	=4	=4	=4	=4	=4
4D\	to-	tar-	.	4F\	to-	tar-	.	4cc\	to-	tar-	.
.	.	.	>	.	.	.	>	16qqdd/LL	.	.	.
.	.	.	.	.	.	.	.	16qqcc/JJ	.	.	>
8D\	-czę	-czą	.	8F\	-czę	-czą	.	8b/	-czę	-czą	.
8D\	po	o-	.	8F\	po	o-	]	8cc\	po	o-	.
4GG/	nie-	-kry-	]	4G\	nie-	-kry-	.	4dd\	nie-	-kry-	.
4GG/	-bie	-wa	.	4Fn\	-bie	-wa	.	4dd\	-bie	-wa	]
=5	=5	=5	=5	=5	=5	=5	=5	=5	=5	=5	=5
!	!	!	!	!	!	!	!LO:DY:rj	!	!	!	!
4C/	Bo-	Wo-	.	4E\	Bo-	Wo-	p	4g/	Bo-	Wo-	.
8C/	-że	-łam	.	8E\	-że	-łam	.	8g/	-że	-łam	.
8C/	naj-	do	.	8E\	naj-	do	.	8g/	naj-	do	.
4.C/	-pierw-	Cie-	.	4.G\	-pierw-	Cie-	.	4.ee\	-pierw-	Cie-	.
8C/	-sze	-bie	.	8E\	-sze	-bie	.	8cc\	-sze	-bie	.
=6	=6	=6	=6	=6	=6	=6	=6	=6	=6	=6	=6
4C/	mo-	Oj-	.	4F\	mo-	Oj-	.	4a/	mo-	Oj-	.
8C/	-je	-cze	.	8F\	-je	-cze	.	8a/	-je	-cze	.
8C/	west-	i	.	8D\	west-	i	.	8b/	west-	i	.
4C/	-chnie-	Bo-	.	4G\	-chnie-	Bo-	.	4cc\	-chnie-	Bo-	.
4C/	-nie	-że	.	4E\	-nie	-że	.	4cc\	-nie	-że	.
=7	=7	=7	=7	=7	=7	=7	=7	=7	=7	=7	=7
!	!	!	!	!LO:TX:a:t=cresc._:ext=c:problem=dynamics with extention lines	!	!	!LO:HP:a:i:t=cresc.	!	!	!	!
4C/	i	Ty	.	4G\	i	Ty	<	4ee\	i	Ty	<
8C/	mo-	słu-	.	8G\	mo-	słu-	.	8.ee\	mo-	słu-	.
8C/	-ją	-chasz	.	8G\	-ją	-chasz	.	.	.	.	.
.	.	.	.	.	.	.	.	16ee\	-ją	-chasz	.
4.D\	du-	gło-	.	4.G\	du-	gło-	.	4.ee\	du-	gło-	.
8D\	-szę	-su	.	8G\	-szę	-su	[[	8dd\	-szę	-su	.
!LO:LB:g=original	!	!	!	!LO:LB:g=original	!	!	!	!LO:LB:g=original	!	!	!
=8	=8	=8	=8	=8	=8	=8	=8	=8	=8	=8	=8
!LO:TX:a:t=P:problem=kropka przy nucie zamazana ołówkiem	!	!	!	!	!	!	!	!	!	!	!
!LO:N:vis=4.	!	!	!	!	!	!	!	!	!	!	!
4D\	wzno-	któr-	.	4F#X\	wzno-	któr-	.	4dd\	wzno-	któr-	.
8D\	-szę	-ry	.	8G\	-szę	-ry	.	8ee\	-szę	-ry	.
8D\	do	Cię	.	8A\	do	Cię	.	8ff#X\	do	Cię	.
4C#X/	Cie-	wzy-	.	4B-X\	Cie-	wzy-	.	4gg\	Cie-	wzy-	.
4C#/	-bie	-wa	.	4B-\	-bie	-wa	.	4gg\	-bie	-wa	.
=9	=9	=9	=9	=9	=9	=9	=9	=9	=9	=9	=9
!	!	!	!LO:DY:rj	!	!	!	!LO:DY:rj	!	!	!	!LO:DY:rj
4E\	i	Ty	f	4B-X\	I	Ty	f	4gg\	I	Ty	f
8E\	mo-	słu-	.	8B-\	mo-	słu-	.	8gg\	mo-	słu-	.
8E\	-ją	-chasz	.	8B-\	-ją	-chasz	.	8gg\	-ją	-chasz	.
4.D\	du-	gło-	.	4.Bn\	du-	gło-	.	4.gg\	du-	gło-	.
8D\	-szę	-su	.	8G\	-szę	-su	>	8b/	-szę	-su	.
=10	=10	=10	=10	=10	=10	=10	=10	=10	=10	=10	=10
4D\	wzno-	któ-	.	4F#X\	wzno-	któ-	.	4ee\	wzno-	któ-	.
8D\	-szę	-ry	.	8F#\	-szę	-ry	.	8dd\	-szę	-ry	.
8D\	do	Cię	.	8F#\	do	Cię	.	8dd\	do	Cię	.
4GG/	Cie-	wzy-	.	4G\	Cie-	wzy-	.	4b\	Cie-	wzy-	.
8GG/	-bie.	-wa	.	8G\	-bie.	-wa	]	8g/	-bie.	-wa	.
8r	.	.	.	8r	.	.	.	8r	.	.	.
!	!	!	!	!	!	!	!	!LO:LB:g=original	!	!	!
=11	=11	=11	=11	=11	=11	=11	=11	=11	=11	=11	=11
!	!	!	!LO:DY:rj	!	!	!	!LO:DY:rj	!	!	!	!LO:DY:rj
4C/	Czu-	Spraw	p	4G\	Czu-	Spraw	p	4ee\	Czu-	Spraw	p
8.C/	-ję	niech	.	8.G\	-ję	niech	.	8.ee\	-ję	niech	.
16C/	Twą	mi	.	16G\	Twą	mi	.	16ff\	Twą	mi	.
4D\	wiel-	ser-	.	4G\	wiel-	ser-	.	4ee\	wiel-	ser-	.
4F\	-kość	-ce	.	4G\	-kość	-ce	.	4dd\	-kość	-ce	.
!LO:LB:g=original	!	!	!	!LO:LB:g=original	!	!	!	!	!	!	!
=12	=12	=12	=12	=12	=12	=12	=12	=12	=12	=12	=12
4E\	wiecz-	cno-	.	4G\	wiecz-	cno-	.	4gg\	wiecz-	cno-	.
!	!	!	!	!	!	!	!	!	!	!	!LO:HP:b
.	.	.	.	.	.	.	.	.	.	.	<
8.E\	-ność	-tą	.	8.G\	-ność	-tą	.	8.gg\	-ność	-tą	[
!	!	!	!	!	!	!	!	!	!	!	!LO:HP:b
16E\	Jej	go-	.	16G\	Jej	go-	.	16aa\	Jej	go-	>
4BB/	stra-	-re-	.	4G\	stra-	-re-	.	4gg\	stra-	-re-	.
.	.	.	.	.	.	.	.	.	.	.	]
4BB/	-żą	-je	.	4G\	-żą	-je	.	4ff\	-żą	-je	.
=13	=13	=13	=13	=13	=13	=13	=13	=13	=13	=13	=13
!	!	!	!	!	!	!	!LO:DY:rj	!	!	!	!
4C/	u	nie-	.	4G\	u	nie-	p	4ee\	u	nie-	.
8E\	nóg	-szczę-	.	8G\	nóg	-szczę-	.	8gg\	nóg	-szczę-	.
8E\	Twych	-ściem	.	8G\	Twych	-ściem	.	8gg\	Twych	-ściem	.
4AA/	stru-	za-	.	4A\	stru-	za-	.	4cc\	stru-	za-	.
4AA/	-mień	-gródź	.	4E\	-mień	-gródź	.	4cc\	-mień	-gródź	.
!	!	!	!	!	!	!	!	!LO:LB:g=original	!	!	!
=14	=14	=14	=14	=14	=14	=14	=14	=14	=14	=14	=14
!	!	!	!LO:DY:rj	!	!	!	!LO:DY:rj	!	!	!	!LO:DY:rj
4D\	cza-	do	p	4F#X\	cza-	do	p	4cc\	cza-	do	p
.	.	.	.	.	.	.	.	16qqdd/LL	.	.	.
.	.	.	.	.	.	.	.	16qqcc/JJ	.	.	.
8D\	-su	złe-	.	8F#\	-su	złe-	.	8b\	-su	złe-	.
8D\	prze-	-go	.	8F#\	prze-	-go	.	8cc\	prze-	-go	.
4GG/	-cie-	dro-	.	4G\	-cie-	dro-	.	4dd\	-cie-	dro-	.
4GG/	-ka	-gę	.	4G\	-ka	-gę	.	4dd#X\	-ka	-gę	.
!	!	!	!	!LO:LB:g=original	!	!	!	!	!	!	!
=15	=15	=15	=15	=15	=15	=15	=15	=15	=15	=15	=15
4C/	u	a	.	4G\	u	a	<	4ee\	u	a	.
!LO:TX:a:t=cresc_:ext=ut:problem=dynamics with extention lines	!	!	!LO:HP:a:i:t=cresc	!	!	!	!	!	!	!	!
.	.	.	<	.	.	.	.	.	.	.	.
!	!	!	!	!	!	!	!	!LO:TX:a:t=cresc_:ext=ud:problem=dynamics with extention lines	!	!	!LO:HP:a:i:t=cresc
8.C/	nóg	jeś-	.	8.G\	nóg	jeś-	.	8.ee\	nóg	jeś-	<
16C/	Twych	-li	.	16G\	Twych	-li	.	16ff\	Twych	-li	[
4D\	lo-	zbłą-	[	4G\	lo-	zbłą-	.	4ee\	lo-	zbłą-	.
4F\	-sy	-dzę	.	4G\	-sy	-dzę	.	4dd\	-sy	-dzę	.
!LO:LB:g=original	!	!	!	!	!	!	!	!	!	!	!
=16	=16	=16	=16	=16	=16	=16	=16	=16	=16	=16	=16
(>8E\L	świa-	daj-	.	8G\L	świa-	daj	.	4gg\	świa-	daj	.
8D\J)	.	.	.	8B-X\J	.	.	.	.	.	.	.
8.C#X/	-ta	-mi	.	8.A\	-ta	mi	.	8.gg\	-ta	mi	.
16C#/	się	na-	.	16A\	się	na-	.	16aa\	się	na-	.
4.D\	wa-	-dzie-	.	4.A\	wa-	-dzie-	.	4gg\	wa-	-dzie-	.
.	.	.	.	.	.	.	.	4ff\	-żą	-je	.
8BB/	-żą	-ję	.	8G\	-żą	-ję	.	.	.	.	.
!	!	!	!	!	!	!	!	!LO:LB:g=original	!	!	!
=17	=17	=17	=17	=17	=17	=17	=17	=17	=17	=17	=17
!	!	!	!	!	!	!	!LO:DY:rj	!	!	!	!LO:DY:rj
4C/	i	że	.	4G\	i	że	f	4ee\	i	że	f
!	!	!	!LO:DY:rj	!	!	!	!	!	!	!	!
8E\	drżą-	jesz-	f	8B-X\	drżą-	jesz-	.	8gg\	drżą-	jesz-	.
8E\	-cy	-cze	<	8B-\	-cy	-cze	.	8gg\	-cy	-cze	.
4F\	pio-	Cie-	.	4B-\	pio-	Cie-	.	4gg\	pio-	Cie-	.
.	.	.	[	.	.	.	.	.	.	.	.
8F\	-run	-bie	.	8B-\	-run	-bie	.	8gg\	-run	-bie	.
8F\	Twej	prze-	.	8A\	Twej	prze,,-	.	8ff\	Twej	prze-	.
!	!	!	!	!LO:LB:g=original	!	!	!	!	!	!	!
=18	=18	=18	=18	=18	=18	=18	=18	=18	=18	=18	=18
(<2G\	wo-	-bła-	.	(<2c\	wo-	-bła-	.	(<2ee\	wo-	-bła-	.
.	.	.	<	.	.	.	.	.	.	.	.
4E\)	.	.	.	4G\)	.	.	.	4cc\)	.	.	.
4D\	-li	-gać	[	4A\	-li	-gać	.	4ff\	-li	-gać	.
=19	=19	=19	=19	=19	=19	=19	=19	=19	=19	=19	=19
1GG	cze-	mo-	>	(<2G\	cze-	mo-	.	(>2ee\	cze-	mo-	.
.	.	.	.	2F\)	.	.	.	2dd\)	.	.	.
=20	=20	=20	=20	=20	=20	=20	=20	=20	=20	=20	=20
!	!	!	!	!LO:TX:a:t=P:problem=nuta przekreślona; poprawiona ołówkiem na 1E	!	!	!	!LO:TX:a:t=P:problem=niewyraźna kropka na końcu pierwszej zwrotki	!	!	!
1C	-ka.	-gę.	]	1C	-ka.	-gę.	.	1cc	-ka.	-gę.	.
!	!	!	!	!	!	!	!	!LO:TX:b:t=P:problem= dopisek na pieciolinii za końcową kreską taktową	!	!	!
!	!	!	!	!	!	!	!	!LO:TX:b:i:t=d. 20/5 1891 Flasza	!	!	!
==	==	==	==	==	==	==	==	==	==	==	==
*-	*-	*-	*-	*-	*-	*-	*-	*-	*-	*-	*-
!!!system-decoration: [(s1,s2,s3)]
!!!RDF**kern: > = above
!!!RDF**kern: < = below
!!!EED: Mateusz Mrugas
!!!EEV: 2021-02-13
!!!ENC: Berenika Jozajtis
!!!END: 2021-02-01
!!!YEC: Copyright 2022 Narodowy Instytut Fryderyka Chopina (https://polishscores.org)
!!!YEM: License CC-BY-4.0 (https://creativecommons.org/licenses/by/4.0)
